X:8915
T:La femme du roulier
R:Chanson
O:France
B:Le livre des Chansons (Henri Davenson) n81
Z:<anamnese@caramail.com> -- http://anamnese.fr.st
M:2/4
L:1/8
Q:1/4=110
K:G
B2 c>B | A2 A (F/G/) | A A A B | (AG) z (E/F/) | G G G>A | G3 A | 
B G E F | (AG) F2-|F zz B, | E F G A | B B/ B/ B/ z B/ | c>B A B | (G2F2) | E4 ||
W:Triste et dolente, la femme du roulier
W:S'en va dans le pays, de taverne en taverne
W:Pour chercher son mari, 
W:     Lali-ra
W:avec une lanterne
W:
W:"Bonsoir l'htesse, mon mari est-il l 
W:- Oui, madame, il est l ; dans la plus haute chambre,
W:A prendre ses bats avec une servante. 
W:
W:- Ah ! Chien d'ivrogne, pilier de cabaret,
W:Tu manges tout ton bien avecque des canailles,
W:Et moi et tes enfants nous sommes sur la paille ! /.../
